X:1
T:Title
%%score { ( 1 3 ) | ( 2 4 5 ) }
L:1/8
Q:1/4=100
M:4/4
K:Eb
V:1 treble nm="Grand Piano"
V:3 treble 
V:2 bass 
V:4 bass 
V:5 bass 
V:1
 [Ge]2 [B,EB]2 [B,DA]2 [B,EG]2 | [A,G]4 z4 | [CDA]3 [CDA] [B,DG]2 [B,DF]2 | [EG-]4 G4 | %4
w: Robert~Harkness * * *||||
 [Ge]2 [B,EB]2 [B,DA]2 [B,EG]2 | [A,G]4 [A,F]2 E2 | E2 E2 E2 D2 | E8 |] %8
w: ||||
V:2
 [E,B,]2 G,2 F,2 E,2 | z2 =B,2 A,,4 | B,,3 B,, B,,2 B,,2 | z4 E4 | [E,B,]2 G,2 F,2 E,2 | %5
 z2 =B,2 A,,2 [=A,,_G,]2 | [B,,G,B,]2 [=B,,_G,=A,]2 [_B,,F,_A,]2 [B,,A,B,]2 | [E,G,B,]8 |] %8
V:3
 x8 | C2 z2 [A,CF]4 | x8 | B,2 z2 z4 | x8 | C2 z2 C4 | x8 | x8 |] %8
V:4
 x8 | A,,4 z4 | x8 | z2 D2 z2 C2 | x8 | A,,4 z4 | x8 | x8 |] %8
V:5
 x8 | x8 | x8 | E,8 | x8 | x8 | x8 | x8 |] %8

